src/assets/img/icons/duotone-icons/Files/Upload.svg

<?xml version="1.0" encoding="UTF-8"?>
<svg width="24px" height="24px" viewBox="0 0 24 24" version="1.1" xmlns="http://www.w3.org/2000/svg" xmlns:xlink="http://www.w3.org/1999/xlink">
    <!-- Generator: Sketch 52.2 (67145) - http://www.bohemiancoding.com/sketch -->
    <title>Stockholm-icons / Files / Upload</title>
    <desc>Created with Sketch.</desc>
    <g id="Stockholm-icons-/-Files-/-Upload" stroke="none" stroke-width="1" fill="none" fill-rule="evenodd">
        <rect id="bound" x="0" y="0" width="24" height="24"></rect>
        <path d="M2,13 C2,12.5 2.5,12 3,12 C3.5,12 4,12.5 4,13 C4,13.3333333 4,15 4,18 C4,19.1045695 4.8954305,20 6,20 L18,20 C19.1045695,20 20,19.1045695 20,18 L20,13 C20,12.4477153 20.4477153,12 21,12 C21.5522847,12 22,12.4477153 22,13 L22,18 C22,20.209139 20.209139,22 18,22 L6,22 C3.790861,22 2,20.209139 2,18 C2,15 2,13.3333333 2,13 Z" id="Path-57" fill="#335EEA" opacity="0.3"></path>
        <rect id="Rectangle" fill="#335EEA" opacity="0.3" x="11" y="2" width="2" height="14" rx="1"></rect>
        <path d="M12.0362375,3.37797611 L7.70710678,7.70710678 C7.31658249,8.09763107 6.68341751,8.09763107 6.29289322,7.70710678 C5.90236893,7.31658249 5.90236893,6.68341751 6.29289322,6.29289322 L11.2928932,1.29289322 C11.6689749,0.916811528 12.2736364,0.900910387 12.6689647,1.25670585 L17.6689647,5.75670585 C18.0794748,6.12616487 18.1127532,6.75845471 17.7432941,7.16896473 C17.3738351,7.57947475 16.7415453,7.61275317 16.3310353,7.24329415 L12.0362375,3.37797611 Z" id="Path-102" fill="#335EEA"></path>
    </g>
</svg>

<svg width="24" height="24" viewBox="0 0 24 24" xmlns="http://www.w3.org/2000/svg"><g fill="none" fill-rule="evenodd"><path d="M0 0h24v24H0z"/><path d="M2 13c0-.5.5-1 1-1s1 .5 1 1v5a2 2 0 002 2h12a2 2 0 002-2v-5a1 1 0 012 0v5a4 4 0 01-4 4H6a4 4 0 01-4-4v-5z" fill="#335EEA" opacity=".3"/><rect fill="#335EEA" opacity=".3" x="11" y="2" width="2" height="14" rx="1"/><path d="M12.036 3.378l-4.329 4.33a1 1 0 01-1.414-1.415l5-5a1 1 0 011.376-.036l5 4.5a1 1 0 11-1.338 1.486l-4.295-3.865z" fill="#335EEA"/></g></svg>
